svg/fluentui-system-icons/ic_fluent_dismiss_square_multiple_20_regular.svg

<svg width="20" height="20" viewBox="0 0 20 20" fill="none" xmlns="http://www.w3.org/2000/svg">
<path d="M3 5.5C3 4.11929 4.11929 3 5.5 3H12.5C13.8807 3 15 4.11929 15 5.5V12.5C15 13.8807 13.8807 15 12.5 15H5.5C4.11929 15 3 13.8807 3 12.5V5.5ZM5.5 4C4.67157 4 4 4.67157 4 5.5V12.5C4 13.3284 4.67157 14 5.5 14H12.5C13.3284 14 14 13.3284 14 12.5V5.5C14 4.67157 13.3284 4 12.5 4H5.5ZM7.50018 17.0002C6.68227 17.0002 5.9561 16.6074 5.5 16.0002H12.5002C14.4332 16.0002 16.0002 14.4332 16.0002 12.5002V5.50018C16.6074 5.95628 17.0002 6.68227 17.0002 7.50018V12.5002C17.0002 14.9855 14.9855 17.0002 12.5002 17.0002H7.50018ZM6.85355 6.14645C6.65829 5.95118 6.34171 5.95118 6.14645 6.14645C5.95118 6.34171 5.95118 6.65829 6.14645 6.85355L8.29289 9L6.14645 11.1464C5.95118 11.3417 5.95118 11.6583 6.14645 11.8536C6.34171 12.0488 6.65829 12.0488 6.85355 11.8536L9 9.70711L11.1464 11.8536C11.3417 12.0488 11.6583 12.0488 11.8536 11.8536C12.0488 11.6583 12.0488 11.3417 11.8536 11.1464L9.70711 9L11.8536 6.85355C12.0488 6.65829 12.0488 6.34171 11.8536 6.14645C11.6583 5.95118 11.3417 5.95118 11.1464 6.14645L9 8.29289L6.85355 6.14645Z" fill="#212121"/>
</svg>

<svg xmlns="http://www.w3.org/2000/svg" width="20" height="20"><path d="M3 5.5A2.5 2.5 0 0 1 5.5 3h7A2.5 2.5 0 0 1 15 5.5v7a2.5 2.5 0 0 1-2.5 2.5h-7A2.5 2.5 0 0 1 3 12.5v-7ZM5.5 4A1.5 1.5 0 0 0 4 5.5v7A1.5 1.5 0 0 0 5.5 14h7a1.5 1.5 0 0 0 1.5-1.5v-7A1.5 1.5 0 0 0 12.5 4h-7Zm2 13a2.496 2.496 0 0 1-2-1h7a3.5 3.5 0 0 0 3.5-3.5v-7c.607.456 1 1.182 1 2v5a4.5 4.5 0 0 1-4.5 4.5h-5ZM6.854 6.146a.5.5 0 1 0-.708.708L8.293 9l-2.147 2.146a.5.5 0 0 0 .708.708L9 9.707l2.146 2.147a.5.5 0 0 0 .708-.708L9.707 9l2.147-2.146a.5.5 0 0 0-.708-.708L9 8.293 6.854 6.146Z"/></svg>
